products/org.csstudio.iter.css.product/SymbolLibrary_quad_hd/SVG/Electrical/Starters/GS Starter-Regulator with Thyristors.svg

<?xml version="1.0" encoding="UTF-8"?>
<!--
/*******************************************************************************
* Copyright (c) 2010-2016 ITER Organization.
* All rights reserved. This program and the accompanying materials
* are made available under the terms of the Eclipse Public License v1.0
* which accompanies this distribution, and is available at
* http://www.eclipse.org/legal/epl-v10.html
******************************************************************************/
-->
<svg xmlns="http://www.w3.org/2000/svg" xmlns:xlink="http://www.w3.org/1999/xlink" width="69pt" height="132pt" viewBox="0 0 69 132" version="1.1">
<g id="surface1">
<path style=" stroke:none;fill-rule:evenodd;fill:rgb(100%,100%,100%);fill-opacity:1;" d="M 1.875 3.773438 L 1.914063 3.773438 L 1.914063 3.851563 L 1.875 3.851563 Z "/>
<path style=" stroke:none;fill-rule:evenodd;fill:rgb(100%,100%,100%);fill-opacity:1;" d="M 65.613281 131.253906 L 65.65625 131.253906 L 65.65625 131.332031 L 65.613281 131.332031 Z "/>
<path style="fill-rule:evenodd;fill:rgb(100%,100%,100%);fill-opacity:1;stroke-width:0.999999;stroke-linecap:round;stroke-linejoin:round;stroke:rgb(0%,0%,0%);stroke-opacity:1;stroke-miterlimit:3;" d="M -0.0000139699 36.748737 L 34.016658 36.748737 L 34.016658 70.763326 L -0.0000139699 70.763326 Z " transform="matrix(1.875,0,0,1.875,1.875026,-33.239807)"/>
<path style="fill:none;stroke-width:0.999999;stroke-linecap:round;stroke-linejoin:round;stroke:rgb(0%,0%,0%);stroke-opacity:1;stroke-miterlimit:3;" d="M 34.020825 62.261037 L 17.010406 70.761038 L -0.0000139699 62.261037 " transform="matrix(1.875,0,0,1.875,1.875026,-81.075361)"/>
<path style="fill:none;stroke-width:0.999999;stroke-linecap:round;stroke-linejoin:round;stroke:rgb(0%,0%,0%);stroke-opacity:1;stroke-miterlimit:3;" d="M -0.000530704 70.759133 L 24.469787 70.760606 L 30.070663 70.760606 " transform="matrix(1.325825,-1.325825,1.325825,1.325825,-76.001023,-42.213368)"/>
<path style=" stroke:none;fill-rule:evenodd;fill:rgb(0%,0%,0%);fill-opacity:1;" d="M 46.546875 15.445313 L 57.683594 11.734375 L 53.96875 22.871094 L 46.546875 15.445313 "/>
<path style="fill:none;stroke-width:0.999999;stroke-linecap:round;stroke-linejoin:round;stroke:rgb(0%,0%,0%);stroke-opacity:1;stroke-miterlimit:3;" d="M 0.000100084 70.759123 L 25.510521 70.759123 " transform="matrix(1.875,0,0,1.875,9.847469,-65.130364)"/>
<path style="fill:none;stroke-width:0.999999;stroke-linecap:round;stroke-linejoin:round;stroke:rgb(0%,0%,0%);stroke-opacity:1;stroke-miterlimit:3;" d="M 0.000005028 70.76016 L 12.760424 70.76016 " transform="matrix(0.000000000000000115,1.875,-1.875,0.000000000000000115,177.077621,55.593741)"/>
<path style="fill:none;stroke-width:0.999999;stroke-linecap:round;stroke-linejoin:round;stroke:rgb(0%,0%,0%);stroke-opacity:1;stroke-miterlimit:3;" d="M -0.000459956 70.758978 L 8.499541 70.758978 " transform="matrix(0.000000000000000115,1.875,-1.875,0.000000000000000115,163.790249,74.196175)"/>
<path style="fill:none;stroke-width:0.999999;stroke-linecap:round;stroke-linejoin:round;stroke:rgb(0%,0%,0%);stroke-opacity:1;stroke-miterlimit:3;" d="M 0.000005028 70.760512 L 12.760424 70.760512 " transform="matrix(0.000000000000000115,1.875,-1.875,0.000000000000000115,153.160313,55.593741)"/>
<path style="fill:none;stroke-width:0.999999;stroke-linecap:round;stroke-linejoin:round;stroke:rgb(0%,0%,0%);stroke-opacity:1;stroke-miterlimit:3;" d="M -0.000141162 70.759983 L 14.259453 70.75997 " transform="matrix(-1.677051,0.838524,-0.838524,-1.677051,103.732134,186.226843)"/>
<path style="fill:none;stroke-width:0.999999;stroke-linecap:round;stroke-linejoin:round;stroke:rgb(0%,0%,0%);stroke-opacity:1;stroke-miterlimit:3;" d="M 0.00021592 70.759945 L 14.25981 70.759958 " transform="matrix(-1.677051,-0.838524,0.838524,-1.677051,-14.942915,186.226843)"/>
</g>
</svg>

<?xml version="1.0" encoding="UTF-8" standalone="no"?>
<!--
/*******************************************************************************
* Copyright (c) 2010-2016 ITER Organization.
* All rights reserved. This program and the accompanying materials
* are made available under the terms of the Eclipse Public License v1.0
* which accompanies this distribution, and is available at
* http://www.eclipse.org/legal/epl-v10.html
******************************************************************************/
-->
<!--
/*******************************************************************************
* Copyright (c) 2010-2016 ITER Organization.
* All rights reserved. This program and the accompanying materials
* are made available under the terms of the Eclipse Public License v1.0
* which accompanies this distribution, and is available at
* http://www.eclipse.org/legal/epl-v10.html
******************************************************************************/
-->

<svg
   xmlns:dc="http://purl.org/dc/elements/1.1/"
   xmlns:cc="http://creativecommons.org/ns#"
   xmlns:rdf="http://www.w3.org/1999/02/22-rdf-syntax-ns#"
   xmlns:svg="http://www.w3.org/2000/svg"
   xmlns="http://www.w3.org/2000/svg"
   xmlns:sodipodi="http://sodipodi.sourceforge.net/DTD/sodipodi-0.dtd"
   xmlns:inkscape="http://www.inkscape.org/namespaces/inkscape"
   width="85.287979pt"
   height="127.55859pt"
   viewBox="0 0 85.287979 127.55859"
   version="1.1"
   id="svg2"
   inkscape:version="0.91 r13725"
   sodipodi:docname="OL_EE0407.svg">
  <metadata
     id="metadata33">
    <rdf:RDF>
      <cc:Work
         rdf:about="">
        <dc:format>image/svg+xml</dc:format>
        <dc:type
           rdf:resource="http://purl.org/dc/dcmitype/StillImage" />
        <dc:title></dc:title>
      </cc:Work>
    </rdf:RDF>
  </metadata>
  <defs
     id="defs31" />
  <sodipodi:namedview
     pagecolor="#ffffff"
     bordercolor="#666666"
     borderopacity="1"
     objecttolerance="10"
     gridtolerance="10"
     guidetolerance="10"
     inkscape:pageopacity="0"
     inkscape:pageshadow="2"
     inkscape:window-width="1366"
     inkscape:window-height="706"
     id="namedview29"
     showgrid="false"
     fit-margin-left="9.8"
     fit-margin-right="9.8"
     fit-margin-top="0"
     fit-margin-bottom="0"
     inkscape:zoom="1.430303"
     inkscape:cx="54.218067"
     inkscape:cy="81.665039"
     inkscape:window-x="-8"
     inkscape:window-y="-8"
     inkscape:window-maximized="1"
     inkscape:current-layer="svg2" />
  <g
     id="surface1"
     transform="translate(8.8744533,-3.773438)">
    <path
       style="fill:#ffffff;fill-opacity:1;fill-rule:evenodd;stroke:none"
       d="m 1.875,3.773438 0.039063,0 0,0.078125 -0.039063,0 z"
       id="path5"
       inkscape:connector-curvature="0" />
    <path
       style="fill:#ffffff;fill-opacity:1;fill-rule:evenodd;stroke:none"
       d="m 65.613281,131.25391 0.04297,0 0,0.0781 -0.04297,0 z"
       id="path7"
       inkscape:connector-curvature="0" />
    <path
       style="fill:#ffffff;fill-opacity:1;fill-rule:evenodd;stroke:#000000;stroke-width:0.99999899;stroke-linecap:round;stroke-linejoin:round;stroke-miterlimit:3;stroke-opacity:1"
       d="m -1.39699e-5,36.748737 34.0166719699,0 0,34.014589 -34.0166719699,0 z"
       transform="matrix(1.875,0,0,1.875,1.875026,-33.239807)"
       id="path9"
       inkscape:connector-curvature="0" />
    <path
       style="fill:none;stroke:#000000;stroke-width:0.99999899;stroke-linecap:round;stroke-linejoin:round;stroke-miterlimit:3;stroke-opacity:1"
       d="M 34.020825,62.261037 17.010406,70.761038 -1.39699e-5,62.261037"
       transform="matrix(1.875,0,0,1.875,1.875026,-81.075361)"
       id="path11"
       inkscape:connector-curvature="0" />
    <path
       style="fill:none;stroke:#000000;stroke-width:0.99999899;stroke-linecap:round;stroke-linejoin:round;stroke-miterlimit:3;stroke-opacity:1"
       d="m -5.30704e-4,70.759133 24.470317704,0.0015 5.600876,0"
       transform="matrix(1.325825,-1.325825,1.325825,1.325825,-76.001023,-42.213368)"
       id="path13"
       inkscape:connector-curvature="0" />
    <path
       style="fill:#000000;fill-opacity:1;fill-rule:evenodd;stroke:none"
       d="M 46.546875,15.445313 57.683594,11.734375 53.96875,22.871094 46.546875,15.445313"
       id="path15"
       inkscape:connector-curvature="0" />
    <path
       style="fill:none;stroke:#000000;stroke-width:0.99999899;stroke-linecap:round;stroke-linejoin:round;stroke-miterlimit:3;stroke-opacity:1"
       d="m 1.00084e-4,70.759123 25.510420916,0"
       transform="matrix(1.875,0,0,1.875,9.847469,-65.130364)"
       id="path17"
       inkscape:connector-curvature="0" />
    <path
       style="fill:none;stroke:#000000;stroke-width:0.99999899;stroke-linecap:round;stroke-linejoin:round;stroke-miterlimit:3;stroke-opacity:1"
       d="m 5.028e-6,70.76016 12.760418972,0"
       transform="matrix(0,1.875,-1.875,0,177.07762,55.593741)"
       id="path19"
       inkscape:connector-curvature="0" />
    <path
       style="fill:none;stroke:#000000;stroke-width:0.99999899;stroke-linecap:round;stroke-linejoin:round;stroke-miterlimit:3;stroke-opacity:1"
       d="m -4.59956e-4,70.758978 8.500000956,0"
       transform="matrix(0,1.875,-1.875,0,163.79025,74.196175)"
       id="path21"
       inkscape:connector-curvature="0" />
    <path
       style="fill:none;stroke:#000000;stroke-width:0.99999899;stroke-linecap:round;stroke-linejoin:round;stroke-miterlimit:3;stroke-opacity:1"
       d="m 5.028e-6,70.760512 12.760418972,0"
       transform="matrix(0,1.875,-1.875,0,153.16031,55.593741)"
       id="path23"
       inkscape:connector-curvature="0" />
    <path
       style="fill:none;stroke:#000000;stroke-width:0.99999899;stroke-linecap:round;stroke-linejoin:round;stroke-miterlimit:3;stroke-opacity:1"
       d="M -1.41162e-4,70.759983 14.259453,70.75997"
       transform="matrix(-1.677051,0.838524,-0.838524,-1.677051,103.73213,186.22684)"
       id="path25"
       inkscape:connector-curvature="0" />
    <path
       style="fill:none;stroke:#000000;stroke-width:0.99999899;stroke-linecap:round;stroke-linejoin:round;stroke-miterlimit:3;stroke-opacity:1"
       d="M 2.1592e-4,70.759945 14.25981,70.759958"
       transform="matrix(-1.677051,-0.838524,0.838524,-1.677051,-14.942915,186.22684)"
       id="path27"
       inkscape:connector-curvature="0" />
  </g>
</svg>
